symbols/web/cast_connected/materialsymbolsoutlined/cast_connected_gradN25_40px.svg

<svg xmlns="http://www.w3.org/2000/svg" height="40" width="40"><path d="M21.125 27.625h9.792v-15.25H9.125v3.917q.333.166 1.521.666 1.187.5 1.521.75V15h16.125v10h-7.167Zm0 5.458v-2.625h12.667V9.542h-27.5V15.5H3.625V9.542q0-1.042.792-1.854.791-.813 1.875-.813h27.5q1.041 0 1.833.813.792.812.792 1.854v20.916q0 1.042-.792 1.834-.792.791-1.833.791Zm-17.5 0h4.292q0-1.833-1.25-3.125-1.25-1.291-3.042-1.291Zm6.917 0h2.666q0-4.041-2.791-6.854-2.792-2.812-6.792-2.812v2.625q2.917 0 4.917 2.062 2 2.063 2 4.979Zm5.291 0h2.625q0-3.083-1.146-5.812-1.145-2.729-3.166-4.75t-4.729-3.209q-2.709-1.187-5.792-1.187v2.625q2.583 0 4.792.979 2.208.979 3.854 2.646 1.646 1.667 2.604 3.896.958 2.229.958 4.812Zm4.417-11.791Z"/></svg>

<svg xmlns="http://www.w3.org/2000/svg" height="40" width="40"><path d="M21.125 27.625H30.917V12.375H9.125V16.292Q9.458 16.458 10.646 16.958Q11.833 17.458 12.167 17.708V15H28.292V25H21.125ZM21.125 33.083V30.458H33.792Q33.792 30.458 33.792 30.458Q33.792 30.458 33.792 30.458V9.542Q33.792 9.542 33.792 9.542Q33.792 9.542 33.792 9.542H6.292Q6.292 9.542 6.292 9.542Q6.292 9.542 6.292 9.542V15.5H3.625V9.542Q3.625 8.5 4.417 7.688Q5.208 6.875 6.292 6.875H33.792Q34.833 6.875 35.625 7.688Q36.417 8.5 36.417 9.542V30.458Q36.417 31.5 35.625 32.292Q34.833 33.083 33.792 33.083ZM3.625 33.083H7.917Q7.917 31.25 6.667 29.958Q5.417 28.667 3.625 28.667ZM10.542 33.083H13.208Q13.208 29.042 10.417 26.229Q7.625 23.417 3.625 23.417V26.042Q6.542 26.042 8.542 28.104Q10.542 30.167 10.542 33.083ZM15.833 33.083H18.458Q18.458 30 17.312 27.271Q16.167 24.542 14.146 22.521Q12.125 20.5 9.417 19.312Q6.708 18.125 3.625 18.125V20.75Q6.208 20.75 8.417 21.729Q10.625 22.708 12.271 24.375Q13.917 26.042 14.875 28.271Q15.833 30.5 15.833 33.083ZM20.25 21.292Q20.25 21.292 20.25 21.292Q20.25 21.292 20.25 21.292Z"/></svg>
